Adwaita++/actions/symbolic/document-import-symbolic.svg

<svg height="16" width="16" xmlns="http://www.w3.org/2000/svg">
  <g fill="#474747">
    <path d="m3 15s-1 0-1-1v-12c0-1 1-1 1-1h10s1 0 1 1v4h-2v-2.99h-8v9.99h8v-3h2v4c0 1-1 1-1 1z"/>
    <path d="m11 11v-2h4v-2h-4v-2l-4.5 3z"/>
  </g>
</svg>

<svg xmlns="http://www.w3.org/2000/svg" width="16" height="16" version="1.1">
 <path style="fill:#474747" d="M 3,15 C 3,15 2,15 2,14 V 2 C 2,1 3,1 3,1 H 13 C 13,1 14,1 14,2 V 6 H 12 V 3.01 H 4 V 13 H 12 V 10 H 14 V 14 C 14,15 13,15 13,15 Z"/>
 <path style="fill:#474747" d="M 11,11 V 9 H 15 V 7 H 11 V 5 L 6.5,8 Z"/>
</svg>
